picto/arrow-turning-right-framed.svg

<svg class="color-immutable" width="75" height="30" viewBox="0 0 75 30" fill="none" xmlns="http://www.w3.org/2000/svg"><path d="M75 0H0V30H75V0Z" fill="#2D327D"/><path d="M27.3284 3.53978C39.9921 3.53978 51.4234 8.90633 59.4777 17.4803L58.9739 5.87986L63 9.90668V24H48.9067L44.8799 19.9737L56.4572 20.4769L56.4783 20.4781C49.1934 12.6718 38.8228 7.78088 27.3284 7.78088C22.2773 7.78088 17.4436 8.727 12.9921 10.4477L11.4678 6.49005C16.3925 4.58663 21.7398 3.53978 27.3284 3.53978Z" fill="white"/></svg>

<svg class="color-immutable" width="75" height="30" viewBox="0 0 75 30" fill="none" xmlns="http://www.w3.org/2000/svg"><g clip-path="url(#a)"><path d="M75 0H0v30h75V0Z" fill="#2D327D"/><path d="M27.328 3.54c12.664 0 24.095 5.366 32.15 13.94l-.504-11.6L63 9.907V24H48.907l-4.027-4.026 11.577.503.021.001c-7.285-7.806-17.655-12.697-29.15-12.697-5.05 0-9.884.946-14.336 2.667L11.468 6.49a43.9 43.9 0 0 1 15.86-2.95Z" fill="#fff"/></g><defs><clipPath id="a"><path fill="#fff" d="M0 0h75v30H0z"/></clipPath></defs></svg>
